prototype/04-socket-without-vite/public/assets/img/ending_vid_mask.svg

<svg width="391" height="268" viewBox="0 0 391 268" fill="none" xmlns="http://www.w3.org/2000/svg">
<path d="M111.27 1.43062C99.6065 1.43051 35.3165 2.97647 4.39663 1.43062C-2.89738 1.06606 -10.8426 15.3455 -10.8426 25.9471C-10.8426 39.1991 -8.02541 65.3143 -8.02628 81.0359C-8.0267 88.7929 -13.845 141.354 -10.8426 149.853C-7.60332 159.023 -10.8426 248.581 -10.8426 255.869C-10.8426 263.158 5.99584 254.265 16.7346 257.682C26.1208 260.668 37.9123 257.507 45.7781 259.39C56.0287 261.845 107.526 261.845 109.514 261.845C111.501 261.845 209.766 262.322 221.382 265.11C233.701 268.066 301.609 267.714 310.181 265.11C316.708 263.127 372.434 266.471 379.723 267.134C387.011 267.796 396.556 264.333 400.05 260.028C403.785 255.426 398.644 237.297 398.644 224.707C398.644 212.118 393.063 177.918 398.644 159.13C401.852 148.332 399.829 75.738 401.154 61.8234C402.48 47.9088 403.945 10.7053 398.644 6.06765C393.343 1.42995 382.742 6.06831 366.177 6.06831C352.925 6.06831 327.158 2.5488 312.149 3.42427C285.645 4.97016 241.315 7.13454 229.124 3.42439C213.884 -1.2133 189.46 5.35377 178.816 3.42427C169.481 1.73212 125.85 1.43075 111.27 1.43062Z" fill="#D9D9D9" stroke="black"/>
</svg>

<svg fill="none" viewBox="0 0 391 268" xmlns="http://www.w3.org/2000/svg">
<path d="m111.27 1.4306c-11.664-1.1e-4 -75.954 1.5458-106.87 0-7.294-0.36456-15.239 13.915-15.239 24.516 0 13.252 2.8172 39.367 2.8163 55.089-4.2e-4 7.757-5.8187 60.318-2.8163 68.817 3.2393 9.17 0 98.728 0 106.02 0 7.289 16.838-1.604 27.577 1.813 9.3862 2.986 21.178-0.175 29.044 1.708 10.251 2.455 61.748 2.455 63.736 2.455 1.987 0 100.25 0.477 111.87 3.265 12.319 2.956 80.227 2.604 88.799 0 6.527-1.983 62.253 1.361 69.542 2.024 7.288 0.662 16.833-2.801 20.327-7.106 3.735-4.602-1.406-22.731-1.406-35.321 0-12.589-5.581-46.789 0-65.577 3.208-10.798 1.185-83.392 2.51-97.307 1.326-13.915 2.791-51.118-2.51-55.756-5.301-4.6377-15.902 6.6e-4 -32.467 6.6e-4 -13.252 0-39.019-3.5195-54.028-2.644-26.504 1.5459-70.834 3.7103-83.025 1.2e-4 -15.24-4.6377-39.664 1.9294-50.308-1.2e-4 -9.335-1.6922-52.966-1.9935-67.546-1.9936z" fill="#D9D9D9" stroke="#000"/>
</svg>
